; generated by PrusaSlicer 2.6.1 on 2023-10-25 at 20:37:27 UTC


;
;
; 

; external perimeters extrusion width = 0.45mm
; perimeters extrusion width = 0.45mm
; infill extrusion width = 0.45mm
; solid infill extrusion width = 0.45mm
; top infill extrusion width = 0.40mm
; first layer extrusion width = 0.42mm

M73 P0 R60
M73 Q0 S60
M201 X1000 Y1000 Z200 E5000 ; sets maximum accelerations, mm/sec^2
M203 X200 Y200 Z12 E120 ; sets maximum feedrates, mm / sec
M204 S1250 T1250 ; sets acceleration (S) and retract acceleration (R), mm/sec^2
M205 X8.00 Y8.00 Z0.40 E4.50 ; sets the jerk limits, mm/sec
M205 S0 T0 ; sets the minimum extruding and travel feed rate, mm/sec
;TYPE:Custom
M862.3 P "MK3S" ; printer model check
M862.1 P0.4 ; nozzle diameter check
M115 U3.13.0 ; tell printer latest fw version
G90 ; use absolute coordinates
M83 ; extruder relative mode
M104 S240 ; set extruder temp
M140 S85 ; set bed temp
M190 S85 ; wait for bed temp
M109 S240 ; wait for extruder temp
G28 W ; home all without mesh bed level
G80 ; mesh bed leveling

G1 Z0.2 F720
G1 Y-3 F1000 ; go outside print area
G92 E0
G1 X60 E9 F1000 ; intro line
G1 X100 E12.5 F1000 ; intro line

G92 E0
M221 S100

; Don't change E values below. Excessive value can damage the printer.
M907 E430 ; set extruder motor current
G21 ; set units to millimeters
G90 ; use absolute coordinates
M83 ; use relative distances for extrusion
M900 K0.08 ; Filament gcode LA 1.5
M900 K45 ; Filament gcode LA 1.0
M107
;LAYER_CHANGE
;Z:0.2
;HEIGHT:0.2
;BEFORE_LAYER_CHANGE
G92 E0.0
;0.2


G1 E-1 F2100
G1 Z.2 F720
;AFTER_LAYER_CHANGE
;0.2
G1 Z.4
G1 X80.822 Y98.346 F10800
G1 Z.2 F720
G1 E1 F2100
M204 S800
;TYPE:Skirt/Brim
;WIDTH:0.42
G1 F1200
G1 X81.562 Y97.85 E.02793
G1 X82.9 Y97.182 E.04689
G1 X83.939 Y96.828 E.03442
G1 X90.194 Y95.263 E.20217
G1 X90.905 Y95.198 E.02239
G1 X155.083 Y95.205 E2.01226
G1 X170.701 Y96.376 E.49107
G1 X171.975 Y96.864 E.04278
G1 X172.77 Y97.973 E.04278
G1 X172.9 Y98.716 E.02365
G1 X172.97 Y104.217 E.17249
G1 X172.9 Y109.834 E.17613
G1 X172.491 Y111.136 E.04279
G1 X171.435 Y111.999 E.04276
G1 X170.701 Y112.174 E.02366
G1 X154.903 Y113.359 E.49673
G1 X103.755 Y114.8 E1.60435
G1 X84.427 Y113.95 E.6066
G1 X83.596 Y113.888 E.02613
G1 X82.502 Y113.663 E.03502
G1 X81.455 Y113.275 E.03501
G1 X80.478 Y112.733 E.03503
G1 X79.594 Y112.05 E.03503
G1 X78.824 Y111.241 E.03502
G1 X78.184 Y110.325 E.03504
G1 X77.69 Y109.323 E.03503
G1 X77.314 Y108.16 E.03832
G1 X77.098 Y106.987 E.0374
G1 X77.032 Y105.795 E.03743
G1 X77.118 Y104.605 E.03741
G1 X77.355 Y103.435 E.03743
G1 X77.738 Y102.305 E.03741
G1 X78.416 Y100.972 E.04689
G1 X79.104 Y99.997 E.03742
G1 X79.91 Y99.116 E.03744
G1 X80.776 Y98.385 E.03553
M204 S1000
; printing object goat-fork.stl id:0 copy 0
;WIPE_START
G1 F8640
G1 X81.562 Y97.85 E-.21954
G1 X82.9 Y97.182 E-.34531
G1 X83.939 Y96.828 E-.25345
G1 X84.702 Y96.637 E-.1817
;WIPE_END
G1 Z.4 F720
G1 X154.985 Y101.194 F10800
M73 P0 R59
G1 Z.2 F720
G1 E1 F2100
M204 S800
;TYPE:Perimeter
;WIDTH:0.419999
G1 F1200
G1 X154.959 Y101.7 E.01589
G1 X155.01 Y102.006 E.00973
G1 X155.115 Y102.22 E.00747
G1 X155.353 Y102.466 E.01073
G1 X155.729 Y102.626 E.01281
G1 X164.564 Y104.275 E.2818
G1 X155.729 Y105.924 E.2818
G1 X155.353 Y106.084 E.01281
G1 X155.166 Y106.26 E.00805
G1 X155.01 Y106.544 E.01016
G1 X154.959 Y106.85 E.00973
G1 X154.995 Y107.558 E.02223
G1 X155.116 Y107.82 E.00905
G1 X155.297 Y108.023 E.00853
G1 X155.729 Y108.226 E.01497
G1 X161.544 Y109.311 E.18547
G1 X154.682 Y109.824 E.21575
G1 X153.018 Y109.824 E.05217
G1 X152.577 Y109.589 E.01567
G1 X151.122 Y108.884 E.05069
G1 X149.641 Y108.237 E.05067
G1 X148.17 Y107.662 E.04952
G1 X146.608 Y107.12 E.05184
G1 X145.096 Y106.661 E.04954
G1 X143.533 Y106.253 E.05065
G1 X141.918 Y105.898 E.05185
G1 X140.363 Y105.621 E.04952
G1 X138.762 Y105.398 E.05068
G1 X137.153 Y105.239 E.05069
G1 X135.54 Y105.143 E.05066
G1 X133.887 Y105.111 E.05184
G1 X132.27 Y105.143 E.05071
G1 X130.694 Y105.236 E.0495
G1 X129.45 Y105.359 E.03919
G1 X127.447 Y105.621 E.06334
G1 X125.856 Y105.906 E.05068
G1 X124.277 Y106.253 E.05069
G1 X122.749 Y106.651 E.04951
G1 X121.202 Y107.12 E.05069
G1 X119.64 Y107.662 E.05184
G1 X118.169 Y108.237 E.04952
G1 X116.688 Y108.884 E.05067
G1 X115.204 Y109.604 E.05172
G1 X114.005 Y110.245 E.04263
G1 X105.246 Y110.421 E.27469
G1 X104.741 Y110.521 E.01614
G1 X104.263 Y110.747 E.01658
G1 X103.859 Y111.074 E.0163
G1 X103.441 Y110.737 E.01684
G1 X102.92 Y110.501 E.01793
G1 X102.317 Y110.411 E.01912
G1 X84.576 Y110.411 E.55626
G1 X83.953 Y110.364 E.01959
G1 X83.387 Y110.233 E.01822
G1 X82.847 Y110.018 E.01822
G1 X82.347 Y109.724 E.01819
G1 X81.896 Y109.357 E.01823
G1 X81.506 Y108.927 E.0182
G1 X81.185 Y108.443 E.01821
G1 X80.938 Y107.91 E.01842
G1 X80.725 Y107.206 E.02306
G1 X80.602 Y106.473 E.0233
G1 X80.573 Y105.731 E.02328
G1 X80.639 Y104.991 E.02329
G1 X80.798 Y104.266 E.02327
G1 X81.038 Y103.594 E.02237
G1 X81.386 Y102.902 E.02429
G1 X81.803 Y102.29 E.02322
G1 X82.296 Y101.735 E.02328
G1 X82.855 Y101.246 E.02329
G1 X83.463 Y100.839 E.02294
G1 X83.739 Y100.699 E.0097
G1 X83.734 Y103.387 E.08428
G1 X83.392 Y103.794 E.01667
G1 X83.043 Y104.416 E.02236
G1 X82.881 Y104.906 E.01618
G1 X82.798 Y105.273 E.0118
G1 X82.748 Y105.902 E.01978
G1 X82.843 Y106.724 E.02594
G1 X83.098 Y107.446 E.02401
G1 X83.358 Y107.899 E.01638
G1 X83.653 Y108.266 E.01476
G1 X84.024 Y108.656 E.01688
G1 X84.484 Y108.992 E.01786
G1 X84.862 Y109.184 E.01329
G1 X85.362 Y109.385 E.0169
G1 X86.115 Y109.525 E.02401
G1 X86.881 Y109.505 E.02403
G1 X87.626 Y109.327 E.02402
G1 X88.318 Y108.997 E.02404
G1 X88.926 Y108.531 E.02402
G1 X89.423 Y107.948 E.02402
G1 X89.76 Y107.33 E.02207
G1 X90.007 Y106.526 E.02637
G1 X90.069 Y105.887 E.02013
G1 X90.069 Y99.694 E.19418
G1 X90.097 Y99.391 E.00954
G1 X90.257 Y99.058 E.01158
G1 X90.546 Y98.829 E.01156
G1 X90.97 Y98.739 E.01359
G1 X114.73 Y98.739 E.74498
G1 X114.922 Y98.794 E.00626
G1 X116.688 Y99.666 E.06175
G1 X118.135 Y100.299 E.04952
G1 X119.64 Y100.888 E.05067
G1 X121.202 Y101.43 E.05184
G1 X122.714 Y101.889 E.04954
G1 X124.277 Y102.297 E.05065
G1 X125.892 Y102.652 E.05185
G1 X127.447 Y102.929 E.04952
G1 X129.048 Y103.152 E.05068
G1 X130.694 Y103.314 E.05186
G1 X131.904 Y103.384 E.038
G1 X133.879 Y103.439 E.06195
G1 X135.54 Y103.407 E.05209
G1 X137.116 Y103.314 E.0495
G1 X138.725 Y103.156 E.05069
G1 X140.326 Y102.935 E.05067
G1 X141.527 Y102.721 E.03825
G1 X143.533 Y102.297 E.06429
G1 X145.061 Y101.899 E.04951
G1 X146.228 Y101.545 E.03824
G1 X148.17 Y100.888 E.06428
G1 X149.675 Y100.299 E.05067
G1 X151.156 Y99.65 E.0507
G1 X152.993 Y98.739 E.06429
G1 X154.862 Y98.739 E.0586
G1 X161.545 Y99.239 E.21013
G1 X155.729 Y100.324 E.1855
G1 X155.366 Y100.474 E.01232
G1 X155.133 Y100.704 E.01027
G1 X154.995 Y100.992 E.01001
G1 X154.988 Y101.134 E.00446
M204 S1000
G1 X155.353 Y101.226 F10800
M204 S800
G1 F1200
G1 X155.336 Y101.7 E.01487
G1 X155.405 Y101.97 E.00874
G1 X155.572 Y102.159 E.00791
G1 X155.798 Y102.256 E.00771
G1 X166.611 Y104.275 E.34489
G1 X155.798 Y106.294 E.34489
G1 X155.572 Y106.391 E.00771
G1 X155.409 Y106.573 E.00766
G1 X155.336 Y106.85 E.00898
G1 X155.364 Y107.476 E.01965
G1 X155.539 Y107.734 E.00977
G1 X155.798 Y107.856 E.00898
G1 X164.459 Y109.471 E.27624
G1 X154.696 Y110.201 E.30697
G1 X152.924 Y110.201 E.05556
G1 X152.412 Y109.928 E.01819
G1 X150.971 Y109.23 E.0502
G1 X149.503 Y108.588 E.05024
G1 X148.033 Y108.013 E.04949
G1 X146.498 Y107.481 E.05094
G1 X144.966 Y107.016 E.0502
G1 X143.416 Y106.612 E.05022
G1 X141.873 Y106.274 E.04953
G1 X140.296 Y105.992 E.05023
G1 X138.688 Y105.769 E.0509
G1 X137.116 Y105.615 E.04952
G1 X135.517 Y105.52 E.05022
G1 X133.916 Y105.488 E.05021
G1 X132.315 Y105.519 E.05021
G1 X130.716 Y105.613 E.05022
G1 X129.517 Y105.731 E.03778
G1 X127.514 Y105.992 E.06333
G1 X125.937 Y106.274 E.05023
G1 X124.394 Y106.612 E.04953
G1 X122.844 Y107.016 E.05022
G1 X121.291 Y107.488 E.05089
G1 X119.798 Y108.005 E.04954
G1 X118.307 Y108.588 E.0502
G1 X116.819 Y109.239 E.05092
G1 X115.38 Y109.937 E.05015
G1 X114.103 Y110.621 E.04542
G1 X105.483 Y110.786 E.27032
G1 X105.02 Y110.834 E.01459
G1 X104.606 Y110.983 E.0138
G1 X104.257 Y111.218 E.01319
G1 X103.933 Y111.575 E.01512
G1 X103.849 Y111.617 E.00294
G1 X103.575 Y111.322 E.01262
G1 X103.238 Y111.055 E.01348
G1 X102.813 Y110.863 E.01462
G1 X102.317 Y110.788 E.01573
G1 X84.561 Y110.788 E.55673
G1 X83.895 Y110.737 E.02094
M73 Q1 S60
G1 X83.274 Y110.593 E.01999
G1 X82.681 Y110.357 E.02001
G1 X82.131 Y110.034 E.02
G1 X81.636 Y109.632 E.01999
G1 X81.207 Y109.16 E.02
G1 X80.855 Y108.628 E.02
G1 X80.585 Y108.044 E.02017
M73 P1 R59
G1 X80.357 Y107.292 E.02464
G1 X80.226 Y106.512 E.0248
G1 X80.196 Y105.722 E.02479
G1 X80.265 Y104.934 E.0248
G1 X80.435 Y104.161 E.02482
G1 X80.64 Y103.588 E.01908
G1 X80.87 Y103.088 E.01726
G1 X81.252 Y102.429 E.02388
G1 X81.566 Y101.989 E.01695
G1 X82.088 Y101.415 E.02433
G1 X82.674 Y100.913 E.02419
G1 X83.314 Y100.49 E.02405
G1 X84.117 Y100.108 E.02788
G1 X84.111 Y103.532 E.10736
G1 X83.718 Y103.983 E.01876
G1 X83.384 Y104.584 E.02156
G1 X83.173 Y105.314 E.02383
G1 X83.124 Y105.869 E.01747
G1 X83.202 Y106.608 E.0233
G1 X83.425 Y107.259 E.02158
G1 X83.748 Y107.8 E.01976
G1 X84.152 Y108.266 E.01934
G1 X84.361 Y108.435 E.00843
G1 X84.809 Y108.747 E.01712
G1 X85.441 Y109.016 E.02154
G1 X86.116 Y109.148 E.02156
G1 X86.803 Y109.137 E.02154
G1 X87.473 Y108.982 E.02156
G1 X88.096 Y108.692 E.02155
G1 X88.646 Y108.278 E.02158
G1 X89.097 Y107.76 E.02153
G1 X89.403 Y107.208 E.01979
G1 X89.632 Y106.487 E.02372
G1 X89.692 Y105.887 E.01891
G1 X89.692 Y99.694 E.19418
G1 X89.727 Y99.306 E.01221
G1 X89.889 Y98.936 E.01266
G1 X90.152 Y98.631 E.01263
G1 X90.509 Y98.442 E.01267
G1 X90.949 Y98.362 E.01402
G1 X114.912 Y98.362 E.75134
G1 X116.839 Y99.32 E.06747
G1 X118.286 Y99.953 E.04952
G1 X119.778 Y100.537 E.05024
G1 X121.312 Y101.069 E.05091
G1 X122.844 Y101.534 E.0502
G1 X124.373 Y101.932 E.04954
G1 X125.959 Y102.28 E.05091
G1 X127.514 Y102.558 E.04953
G1 X129.1 Y102.778 E.0502
G1 X130.716 Y102.937 E.05091
G1 X131.914 Y103.008 E.03763
G1 X133.889 Y103.062 E.06195
G1 X135.517 Y103.03 E.05105
G1 X137.094 Y102.937 E.04953
G1 X138.688 Y102.781 E.05022
G1 X140.275 Y102.562 E.05023
G1 X141.461 Y102.35 E.03778
G1 X143.437 Y101.932 E.06333
G1 X144.966 Y101.534 E.04954
G1 X146.119 Y101.184 E.03778
G1 X148.032 Y100.537 E.06332
G1 X149.524 Y99.953 E.05024
G1 X150.991 Y99.311 E.05021
G1 X152.432 Y98.611 E.05023
G1 X152.898 Y98.362 E.01657
G1 X154.876 Y98.362 E.06202
G1 X164.461 Y99.079 E.30137
G1 X155.798 Y100.694 E.2763
G1 X155.58 Y100.785 E.00741
M73 Q1 S59
G1 X155.441 Y100.923 E.00614
G1 X155.358 Y101.095 E.00599
G1 X155.355 Y101.166 E.00223
M204 S1000
G1 X155.713 Y101.25 F10800
M204 S800
;TYPE:External perimeter
G1 F1200
G1 X155.736 Y101.79 E.01695
G1 X155.867 Y101.885 E.00507
G1 X166.666 Y103.9 E.34444
;WIDTH:0.459998
G1 X167.66 Y104.067 E.03496
G1 X168.639 Y104.083 E.03396
;WIDTH:0.42849
G1 X169.721 Y104.275 E.03523
G1 X168.625 Y104.468 E.03568
;WIDTH:0.458727
G1 X167.636 Y104.486 E.0342
G1 X166.66 Y104.651 E.03422
;WIDTH:0.419999
G1 X155.867 Y106.665 E.34425
G1 X155.824 Y106.679 E.00142
G1 X155.723 Y106.789 E.00468
G1 X155.713 Y107.3 E.01603
G1 X155.744 Y107.404 E.0034
G1 X155.867 Y107.485 E.00462
G1 X165.177 Y109.221 E.29694
;WIDTH:0.437982
G1 X166.157 Y109.367 E.03255
G1 X167.567 Y109.463 E.04643
;WIDTH:0.404102
G1 X167.616 Y109.465 E.00147
;WIDTH:0.400999
G1 X168.975 Y109.719 E.04116
G1 X167.606 Y109.821 E.04087
;WIDTH:0.404102
G1 X167.547 Y109.823 E.00177
;WIDTH:0.437982
G1 X166.135 Y109.761 E.04643
;WIDTH:0.44277
G1 X165.062 Y109.804 E.0357
;WIDTH:0.419999
G1 X154.71 Y110.578 E.32549
G1 X152.829 Y110.578 E.05898
G1 X152.247 Y110.268 E.02068
G1 X150.82 Y109.575 E.04974
G1 X149.366 Y108.94 E.04975
G1 X147.895 Y108.364 E.04953
G1 X146.389 Y107.842 E.04998
G1 X144.87 Y107.381 E.04977
G1 X143.335 Y106.981 E.04974
G1 X141.792 Y106.642 E.04953
G1 X140.23 Y106.363 E.04975
G1 X138.651 Y106.145 E.04998
G1 X137.079 Y105.99 E.04953
G1 X135.495 Y105.896 E.04975
G1 X133.909 Y105.865 E.04974
G1 X132.322 Y105.896 E.04977
G1 X130.733 Y105.99 E.04991
G1 X129.554 Y106.106 E.03715
G1 X127.58 Y106.363 E.06242
G1 X126.018 Y106.642 E.04975
G1 X124.475 Y106.981 E.04953
G1 X122.94 Y107.381 E.04974
G1 X121.414 Y107.844 E.05
G1 X119.922 Y108.361 E.04951
G1 X118.444 Y108.94 E.04977
G1 X116.984 Y109.578 E.04996
G1 X115.557 Y110.271 E.04974
G1 X114.201 Y110.996 E.04821
G1 X105.933 Y111.155 E.25928
G1 X105.074 Y111.207 E.02698
G1 X104.749 Y111.333 E.01093
G1 X104.48 Y111.522 E.01031
G1 X104.223 Y111.816 E.01224
G1 X103.967 Y111.994 E.00978
G1 X103.753 Y111.994 E.00671
G1 X103.554 Y111.885 E.00711
G1 X103.286 Y111.564 E.01311
G1 X103.017 Y111.361 E.01057
G1 X102.675 Y111.214 E.01167
G1 X102.317 Y111.165 E.01133
G1 X84.547 Y111.165 E.55716
G1 X83.838 Y111.111 E.02229
G1 X83.161 Y110.954 E.02179
G1 X82.515 Y110.697 E.0218
G1 X81.916 Y110.345 E.02178
G1 X81.376 Y109.907 E.0218
G1 X80.909 Y109.392 E.0218
G1 X80.525 Y108.812 E.02181
G1 X80.232 Y108.179 E.02187
G1 X79.99 Y107.378 E.02624
G1 X79.851 Y106.551 E.02629
G1 X79.818 Y105.712 E.02633
G1 X79.892 Y104.877 E.02628
G1 X80.072 Y104.057 E.02632
G1 X80.343 Y103.297 E.0253
G1 X80.735 Y102.519 E.02732
G1 X81.207 Y101.826 E.02629
G1 X81.763 Y101.198 E.0263
G1 X82.395 Y100.646 E.02631
G1 X83.092 Y100.179 E.02631
G1 X83.843 Y99.804 E.02632
G1 X84.495 Y99.577 E.02165
G1 X84.487 Y103.63 E.12708
G1 X84.455 Y103.714 E.00282
G1 X84.044 Y104.173 E.01932
G1 X83.742 Y104.701 E.01907
G1 X83.556 Y105.281 E.0191
G1 X83.5 Y105.837 E.01752
G1 X83.561 Y106.492 E.02063
G1 X83.752 Y107.071 E.01912
G1 X84.033 Y107.553 E.01749
G1 X84.468 Y108.047 E.02064
G1 X84.963 Y108.403 E.01912
G1 X85.52 Y108.647 E.01907
G1 X86.116 Y108.771 E.01909
G1 X86.725 Y108.768 E.01909
G1 X87.32 Y108.638 E.0191
G1 X87.875 Y108.387 E.0191
G1 X88.365 Y108.026 E.01908
G1 X88.77 Y107.571 E.0191
G1 X89.047 Y107.085 E.01754
G1 X89.257 Y106.447 E.02106
G1 X89.315 Y105.887 E.01765
G1 X89.315 Y99.694 E.19418
G1 X89.357 Y99.222 E.01486
G1 X89.475 Y98.886 E.01117
G1 X89.664 Y98.585 E.01114
G1 X89.915 Y98.334 E.01113
G1 X90.216 Y98.145 E.01114
G1 X90.552 Y98.027 E.01117
G1 X90.928 Y97.985 E.01186
G1 X115.006 Y97.985 E.75495
G1 X116.99 Y98.975 E.06952
G1 X118.437 Y99.608 E.04952
G1 X119.915 Y100.186 E.04976
G1 X121.421 Y100.708 E.04998
G1 X122.933 Y101.167 E.04954
G1 X124.468 Y101.568 E.04974
G1 X126.025 Y101.909 E.04998
G1 X127.58 Y102.187 E.04953
G1 X129.152 Y102.404 E.04976
G1 X130.731 Y102.56 E.04975
G1 X131.919 Y102.63 E.03731
G1 X133.909 Y102.685 E.06242
G1 X135.495 Y102.654 E.04974
G1 X137.072 Y102.561 E.04953
G1 X138.658 Y102.404 E.04997
G1 X140.23 Y102.187 E.04976
G1 X141.4 Y101.978 E.03727
G1 X143.333 Y101.57 E.06194
G1 X144.877 Y101.167 E.05003
G1 X146.015 Y100.822 E.03728
G1 X147.895 Y100.186 E.06223
G1 X149.37 Y99.609 E.04966
G1 X150.826 Y98.972 E.04983
G1 X152.254 Y98.279 E.04977
G1 X152.804 Y97.985 E.01955
G1 X154.89 Y97.985 E.0654
G1 X155.701 Y98.046 E.0255
;WIDTH:0.466844
G1 X160.411 Y98.422 E.16655
;WIDTH:0.513689
G1 X165.121 Y98.797 E.18495
;WIDTH:0.521868
G1 X165.639 Y98.796 E.02063
;WIDTH:0.479672
G1 X166.135 Y98.79 E.01801
;WIDTH:0.437476
G1 X167.581 Y98.728 E.04748
;WIDTH:0.401524
G1 X167.606 Y98.729 E.00075
;WIDTH:0.400999
G1 X168.975 Y98.831 E.04087
G1 X167.626 Y99.083 E.04086
;WIDTH:0.401524
G1 X167.6 Y99.086 E.00078
;WIDTH:0.437476
G1 X166.157 Y99.183 E.04745
;WIDTH:0.439366
G1 X166.134 Y99.185 E.00076
;WIDTH:0.476528
G1 X165.641 Y99.236 E.01787
;WIDTH:0.513689
G1 X165.148 Y99.287 E.0194
G1 X160.507 Y100.176 E.18497
;WIDTH:0.466844
G1 X155.867 Y101.065 E.16653
;WIDTH:0.419999
G1 X155.748 Y101.141 E.00443
G1 X155.731 Y101.193 E.00172
M204 S1000
G1 X155.333 Y101.376 F10800
;WIPE_START
G1 F8640
G1 X155.736 Y101.79 E-.13785
G1 X155.867 Y101.885 E-.03736
G1 X159.378 Y102.54 E-.82479
;WIPE_END
G1 Z.4 F720
G1 X96.674 Y101.333 F10800
G1 Z.2 F720
G1 E1 F2100
M204 S800
;TYPE:Perimeter
G1 F1200
G1 X96.724 Y101.216 E.00399
G1 X97.126 Y100.659 E.02154
G1 X97.638 Y100.202 E.02152
G1 X98.236 Y99.866 E.02151
G1 X98.833 Y99.676 E.01964
